src/icons/python.svg

<svg width="16" height="16" viewBox="0 0 16 16" fill="none" xmlns="http://www.w3.org/2000/svg">
<path fill-rule="evenodd" clip-rule="evenodd" d="M11.703 5.796H10.847V7.105C10.847 7.105 10.893 8.666 9.43701 8.666H7.00701C7.00701 8.666 5.64201 8.642 5.64201 10.103V12.519C5.43201 14.419 10.566 14.479 10.524 12.768L10.521 11.512H8.07001V11.135H11.493C13.743 11.323 13.6 5.717 11.702 5.795M9.24701 13.07C9.17937 13.024 9.124 12.9621 9.08573 12.8897C9.04747 12.8174 9.02746 12.7368 9.02746 12.655C9.02746 12.5732 9.04747 12.4926 9.08573 12.4202C9.124 12.3479 9.17937 12.286 9.24701 12.24C9.54001 12.055 9.90801 12.287 9.90801 12.655C9.90801 13.023 9.54001 13.255 9.24701 13.07Z" fill="#FFDE57"/>
<path fill-rule="evenodd" clip-rule="evenodd" d="M4.45803 11.21H5.31403V9.9C5.31403 9.9 5.26803 8.34 6.72403 8.34H9.15403C9.15403 8.34 10.519 8.364 10.519 6.903V4.294C10.302 2.504 5.48003 2.646 5.63703 4.258V5.493H8.08903V5.87H4.66703C2.35603 5.817 2.60303 11.21 4.45803 11.21ZM6.47203 4.765C6.40417 4.71899 6.34862 4.65707 6.31022 4.58464C6.27182 4.51221 6.25174 4.43148 6.25174 4.3495C6.25174 4.26752 6.27182 4.18679 6.31022 4.11436C6.34862 4.04193 6.40417 3.98 6.47203 3.934C6.76503 3.75 7.13403 3.981 7.13403 4.349C7.13403 4.717 6.76503 4.949 6.47203 4.765Z" fill="#4584B6"/>
</svg>

<svg xmlns="http://www.w3.org/2000/svg" width="16" height="16" fill="none"><g fill-rule="evenodd" clip-rule="evenodd"><path fill="#FFCB6B" d="M11.703 5.796h-.856v1.309s.046 1.561-1.41 1.561h-2.43s-1.365-.024-1.365 1.437v2.416c-.21 1.9 4.924 1.96 4.882.249l-.003-1.256H8.07v-.377h3.423c2.25.188 2.107-5.418.209-5.34M9.247 13.07a.502.502 0 0 1 0-.83c.293-.185.661.047.661.415s-.368.6-.661.415"/><path fill="#89DDFF" d="M4.458 11.21h.856V9.9S5.268 8.34 6.724 8.34h2.43s1.365.024 1.365-1.437V4.294c-.217-1.79-5.039-1.648-4.882-.036v1.235h2.452v.377H4.667c-2.311-.053-2.064 5.34-.209 5.34m2.014-6.445a.502.502 0 0 1 0-.831c.293-.184.662.047.662.415s-.369.6-.662.416"/></g></svg>
